X: 46
T: Wee Tod
R:Jig
S:eileen mcauley <aaron:garroncres.freeserve.co.uk> 2004-8-18
M:6/8
L:1/8
K:A
   D | "A"AAA FEE | "D"FAA "A"fee | cee    fee |     cec "E7"BcB |
       "A"AAA FEE | "D"FAA "A"fee | cee    fec | "E7"BcB     A2 :|
|: B | "A"cee e2e |    cee    fee | f2e "D"f2a |  "A"f2e "E7"fga |
       "A"AAA FEE | "D"FAA "A"fee | cee    fec | "E7"BcB     A2 :|
%%sep 3 1 500
